assets/svg/1F613.svg

<svg xmlns="http://www.w3.org/2000/svg" viewBox="0 0 64 64" enable-background="new 0 0 64 64"><circle fill="#fbb041" cx="31.981" cy="31.979" r="31.981"/><g opacity=".987"><path fill="#e79d3c" d="m15.221 41.23c-5.666-12.158-5.921-25.24-.796-36.06-8.682 5.715-14.425 15.539-14.425 26.713 0 17.664 14.318 31.979 31.983 31.979.316 0 .621-.04.935-.047-7.33-6.17-13.508-13.595-17.697-22.582"/></g><path fill="#28a6de" d="m.067 16.321c0 4.704 3.136 8.516 7.01 8.516 3.875 0 7.01-3.812 7.01-8.516s-3.136-16.305-7.01-16.305c-3.87 0-7.01 11.601-7.01 16.305"/><path fill="#58c5e8" d="m6.782.016c-3.772.549-6.782 11.751-6.782 16.372 0 4.744 3.162 8.583 7.06 8.583 1.777 0 3.381-.825 4.622-2.141-5.546-5.896-7.28-14.713-4.902-22.814"/><g fill="#633d19"><path d="m22.365 49.29c-.63.717-.241 1.918.796 1.918 1.197 0 5.495-1.813 9.757-1.813 4.771 0 9.496 1.813 9.756 1.813 1.037 0 1.418-1.201.802-1.918-5.718-6.595-15.404-6.595-21.11 0"/><path d="m37.03 32.417c0 2.336 4.261-.28 8.02-.28 3.764 0 8.02 2.617 8.02.28s-4.26-4.861-8.02-4.861c-3.761.0001-8.02 2.525-8.02 4.861"/><path d="m12.761 32.417c0 2.336 4.259-.28 8.02-.28s8.02 2.617 8.02.28-4.26-4.861-8.02-4.861-8.02 2.525-8.02 4.861"/></g></svg>

<?xml version="1.0" encoding="UTF-8" standalone="no"?>
<!-- Generator: Adobe Illustrator 16.0.0, SVG Export Plug-In . SVG Version: 6.00 Build 0)  -->

<svg
   xmlns:dc="http://purl.org/dc/elements/1.1/"
   xmlns:cc="http://creativecommons.org/ns#"
   xmlns:rdf="http://www.w3.org/1999/02/22-rdf-syntax-ns#"
   xmlns:svg="http://www.w3.org/2000/svg"
   xmlns="http://www.w3.org/2000/svg"
   xmlns:sodipodi="http://sodipodi.sourceforge.net/DTD/sodipodi-0.dtd"
   xmlns:inkscape="http://www.inkscape.org/namespaces/inkscape"
   version="1.1"
   id="Layer_1"
   x="0px"
   y="0px"
   width="64px"
   height="64px"
   viewBox="0 0 64 64"
   enable-background="new 0 0 64 64"
   xml:space="preserve"
   inkscape:version="0.48.5 r10040"
   sodipodi:docname="1F613.svg"
   inkscape:export-filename="D:\TESTINGEMOJI\SVGTEST\1F613.png"
   inkscape:export-xdpi="90"
   inkscape:export-ydpi="90"><metadata
   id="metadata4550"><rdf:RDF><cc:Work
       rdf:about=""><dc:format>image/svg+xml</dc:format><dc:type
         rdf:resource="http://purl.org/dc/dcmitype/StillImage" /><dc:title></dc:title></cc:Work></rdf:RDF></metadata><defs
   id="defs4548" /><sodipodi:namedview
   pagecolor="#ffffff"
   bordercolor="#666666"
   borderopacity="1"
   objecttolerance="10"
   gridtolerance="10"
   guidetolerance="10"
   inkscape:pageopacity="0"
   inkscape:pageshadow="2"
   inkscape:window-width="640"
   inkscape:window-height="480"
   id="namedview4546"
   showgrid="false"
   inkscape:zoom="3.6875"
   inkscape:cx="32"
   inkscape:cy="32"
   inkscape:window-x="720"
   inkscape:window-y="251"
   inkscape:window-maximized="0"
   inkscape:current-layer="Layer_1" />
<g
   id="g4504">
	<g
   id="g4506">
		<g
   id="g4508">
			<circle
   fill="#FBB041"
   cx="31.981"
   cy="31.979"
   r="31.981"
   id="circle4510" />
		</g>
	</g>
	<g
   opacity="0.9866"
   id="g4512">
		<g
   id="g4514">
			<g
   id="g4516">
				<path
   fill="#E79D3C"
   d="M15.221,41.226C9.555,29.068,9.3,15.981,14.425,5.163C5.743,10.878,0,20.702,0,31.876      C0,49.54,14.318,63.855,31.983,63.855c0.316,0,0.621-0.04,0.935-0.047C25.588,57.638,19.41,50.213,15.221,41.226z"
   id="path4518" />
			</g>
		</g>
	</g>
	<g
   id="g4520">
		<g
   id="g4522">
			<g
   id="g4524">
				<path
   fill="#28A6DE"
   d="M0.067,16.321c0,4.704,3.136,8.516,7.007,8.516c3.875,0,7.011-3.812,7.011-8.516      S10.949,0.016,7.074,0.016C3.204,0.016,0.067,11.617,0.067,16.321z"
   id="path4526" />
			</g>
		</g>
		<g
   id="g4528">
			<g
   id="g4530">
				<path
   fill="#58C5E8"
   d="M6.782,0.016C3.01,0.565,0,11.767,0,16.388c0,4.744,3.162,8.583,7.062,8.583      c1.777,0,3.381-0.825,4.622-2.141C6.138,16.934,4.404,8.117,6.782,0.016z"
   id="path4532" />
			</g>
		</g>
	</g>
	<g
   id="g4534">
		<g
   id="g4536">
			<path
   fill="#633D19"
   d="M22.365,49.286c-0.63,0.717-0.241,1.918,0.796,1.918c1.197,0,5.495-1.813,9.757-1.813     c4.771,0,9.496,1.813,9.756,1.813c1.037,0,1.418-1.201,0.802-1.918C37.758,42.691,28.072,42.691,22.365,49.286z"
   id="path4538" />
		</g>
	</g>
	<g
   id="g4540">
		<path
   fill="#633D19"
   d="M37.028,32.417c0,2.336,4.261-0.28,8.022-0.28c3.764,0,8.023,2.617,8.023,0.28s-4.26-4.861-8.023-4.861    C41.289,27.557,37.028,30.081,37.028,32.417z"
   id="path4542" />
		<path
   fill="#633D19"
   d="M12.761,32.417c0,2.336,4.259-0.28,8.022-0.28s8.022,2.617,8.022,0.28s-4.26-4.861-8.022-4.861    S12.761,30.081,12.761,32.417z"
   id="path4544" />
	</g>
</g>
</svg>
